X: 33064
T: Priest In His Boots, The
R: jig
M: 6/8
K: Dmajor
c/d/|e2e e2e|e>fd cBA|d>ed fed|cAc e3|
e2e e2e|efd cBA|ded fga|gec d2:|
f/g/|a2f g2e|f2d cBA|d>ed fed|cAc efg|
a2f g2e|f2d cBA|d>ed fga|gec d2:|

